X: 37
T:Doncaster Races
M:6/8
L:1/8
Q:130
S:Robin Huw Bowen
R:Jig
A:Wales
Z:brian_martin12345@yahoo.com
K:G
d|d2B dcA|G2G GFG|AFD DEF|GBd gfe|d2B dcA|G2G GFG|!
AFD DEF|GDBG2:||B|Adf fef|gdB dBG|Adf fef|gdB GBd|!
ece gfe|dBG gdB|1dcA cBG|B3A2:||2dcA DFA|B3G2||

